Origami/64x64/apps/bomber.svg

<svg width="64" height="64" version="1" xmlns="http://www.w3.org/2000/svg">
 <path d="m12.400552 10.99681c-1.439401 0.525132 3.464318 9.601113 2.280994 10.263622-2.0614 0.822282-4.68109 1.73729-4.68109 1.73729v14.001063s9.124725 1.183722 16.001215 2.000152c1.378479 0.164232-22.00167 14.001063-22.00167 14.001063 6.9290795 0.001748 77.435522-18.592662 49.472862-31.762456-4.803359-2.55691-11.854389-4.230625-19.712761-4.230625-3.948492 0-7.577088 0.465879-10.793186 1.195685-1.54746 0.351154-9.220557-7.696735-10.56619-7.205794z" style="opacity:.2"/>
 <path d="m12.400552 9.9966579c-1.439401 0.5251331 3.464318 9.6011141 2.280994 10.263622-2.0614 0.822282-4.68109 1.73729-4.68109 1.73729v14.001063s9.124725 1.183722 16.001215 2.000152c1.378479 0.164232-22.00167 14.001063-22.00167 14.001063 6.9290795 0.001748 77.435522-18.592662 49.472862-31.762456-4.803359-2.55691-11.854389-4.230625-19.712761-4.230625-3.948492 0-7.577088 0.465878-10.793186 1.195685-1.54746 0.351154-9.220557-7.6967346-10.56619-7.2057941z" style="fill:#28aeae"/>
 <path d="m10.000456 22.997722v-2.000152h-6.0004555v18.001367h6.0004555v-2.000152c12.014923-2.022642 18.142538-4.557652 18.001367-7.087158-0.137896-2.47076-6.265508-4.936267-18.001367-6.913905z" style="opacity:.2"/>
 <path d="m10.000456 21.99757v-2.000152h-6.0004555v18.001367h6.0004555v-2.000152c12.014923-2.022642 18.142538-4.557652 18.001367-7.087158-0.137896-2.47076-6.265508-4.936267-18.001367-6.913905z" style="fill:#3f3f3f"/>
 <path d="m46.085229 18.49738c-0.03958 0.318592-0.08057 0.649191-0.08205 0.898506 3e-3 4.580624 6.08355 7.177303 13.856521 7.590421-0.51414-1.978103-2.495867-3.917706-6.3872-5.750437-0.543756-0.289452-1.123514-0.562521-1.722787-0.828189-0.424456-0.186374-0.869658-0.361943-1.320412-0.535197-0.154132-0.06-0.303908-0.121289-0.460973-0.179693-0.594478-0.218257-1.206446-0.425923-1.839976-0.621149-0.66174-0.203918-1.343626-0.396459-2.043123-0.574262z" style="opacity:.2"/>
 <path d="m46.085229 17.497228c-0.03958 0.318593-0.08056 0.649191-0.08204 0.898506 3e-3 4.580624 6.08355 7.177303 13.856521 7.590421-0.514143-1.978103-2.49587-3.917706-6.387203-5.750437-0.543756-0.289452-1.123514-0.562521-1.722787-0.828189-0.424456-0.186374-0.869658-0.361943-1.320412-0.535197-0.154132-0.06-0.303908-0.121289-0.460973-0.179693-0.594486-0.218257-1.206454-0.425923-1.839984-0.621149-0.66174-0.203919-1.343626-0.396459-2.043122-0.574262z" style="fill:#3f3f3f"/>
 <path d="m12.400391 9.9960938c-0.285108 0.1040152-0.315237 0.5521752-0.199219 1.1953122 0.043442-0.095482 0.109256-0.162491 0.199219-0.195312 1.345633-0.490941 9.018946 7.558185 10.566406 7.207031 3.216098-0.729807 6.844477-1.195313 10.792969-1.195313 7.858372 1e-6 14.909531 1.673559 19.71289 4.230469 4.264446 2.00846 6.229413 4.142771 6.488282 6.31836 0.290906-2.520421-1.571729-5.002772-6.488282-7.31836-4.803359-2.55691-11.854518-4.232422-19.71289-4.232422-3.948492 0-7.576871 0.467459-10.792969 1.197266-1.54746 0.351154-9.220773-7.6979718-10.566406-7.2070312zm2.390625 10.142578c-0.028509 0.051352-0.06265 0.094934-0.109375 0.121094-2.0614 0.822282-4.681641 1.738281-4.681641 1.738281v1s2.620241-0.915999 4.681641-1.738281c0.218121-0.12212 0.227045-0.53349 0.109375-1.121094zm10.316406 18.75c-4.060116 3.018324-21.107422 13.111328-21.107422 13.111328 0.438522 1.11e-4 1.138187-0.075984 2.0449219-0.21875 4.8368711-2.879248 21.141421-12.642095 19.957031-12.783203-0.290662-0.03451-0.596694-0.07367-0.894531-0.109375z" style="fill:#ffffff;opacity:.1"/>
 <path d="m4 19.998047v1h6v-1h-6zm6 2v1c11.061215 1.863952 17.136223 4.161627 17.914062 6.488281 0.061271-0.19172 0.0986-0.382336 0.087891-0.574219-0.137896-2.47076-6.266094-4.936424-18.001953-6.914062z" style="fill:#ffffff;opacity:.1"/>
</svg>

<svg xmlns="http://www.w3.org/2000/svg" width="64" height="64" version="1">
 <path style="opacity:0.2" d="m 12.400552,10.99681 c -1.439401,0.525132 3.464318,9.601113 2.280994,10.263622 -2.0614,0.822282 -4.68109,1.73729 -4.68109,1.73729 v 14.001063 c 0,0 9.124725,1.183722 16.001215,2.000152 C 27.38015,39.163169 4.0000005,53 4.0000005,53 10.92908,53.001748 81.435523,34.407338 53.472862,21.237544 48.669503,18.680634 41.618473,17.006919 33.760101,17.006919 c -3.948492,0 -7.577088,0.465879 -10.793186,1.195685 -1.54746,0.351154 -9.220557,-7.696735 -10.56619,-7.205794 z"/>
 <path style="fill:#28aeae" d="m 12.400552,9.9966579 c -1.439401,0.5251331 3.464318,9.6011141 2.280994,10.2636221 -2.0614,0.822282 -4.68109,1.73729 -4.68109,1.73729 v 14.001063 c 0,0 9.124725,1.183722 16.001215,2.000152 C 27.38015,38.163017 4.0000005,51.999848 4.0000005,51.999848 10.92908,52.001596 81.435523,33.407186 53.472862,20.237392 48.669503,17.680482 41.618473,16.006767 33.760101,16.006767 c -3.948492,0 -7.577088,0.465878 -10.793186,1.195685 -1.54746,0.351154 -9.220557,-7.6967346 -10.56619,-7.2057941 z"/>
 <path style="opacity:0.2" d="M 10.000456,22.997722 V 20.99757 H 4.0000005 V 38.998937 H 10.000456 V 36.998785 C 22.015379,34.976143 28.142994,32.441133 28.001823,29.911627 27.863927,27.440867 21.736315,24.97536 10.000456,22.997722 Z"/>
 <path style="fill:#3f3f3f" d="M 10.000456,21.99757 V 19.997418 H 4.0000005 V 37.998785 H 10.000456 V 35.998633 C 22.015379,33.975991 28.142994,31.440981 28.001823,28.911475 27.863927,26.440715 21.736315,23.975208 10.000456,21.99757 Z"/>
 <path style="opacity:0.2" d="m 46.085229,18.49738 c -0.03958,0.318592 -0.08057,0.649191 -0.08205,0.898506 0.003,4.580624 6.08355,7.177303 13.856521,7.590421 -0.51414,-1.978103 -2.495867,-3.917706 -6.3872,-5.750437 -0.543756,-0.289452 -1.123514,-0.562521 -1.722787,-0.828189 -0.424456,-0.186374 -0.869658,-0.361943 -1.320412,-0.535197 -0.154132,-0.06 -0.303908,-0.121289 -0.460973,-0.179693 -0.594478,-0.218257 -1.206446,-0.425923 -1.839976,-0.621149 -0.66174,-0.203918 -1.343626,-0.396459 -2.043123,-0.574262 z"/>
 <path style="fill:#3f3f3f" d="m 46.085229,17.497228 c -0.03958,0.318593 -0.08056,0.649191 -0.08204,0.898506 0.003,4.580624 6.08355,7.177303 13.856521,7.590421 -0.514143,-1.978103 -2.49587,-3.917706 -6.387203,-5.750437 -0.543756,-0.289452 -1.123514,-0.562521 -1.722787,-0.828189 -0.424456,-0.186374 -0.869658,-0.361943 -1.320412,-0.535197 -0.154132,-0.06 -0.303908,-0.121289 -0.460973,-0.179693 -0.594486,-0.218257 -1.206454,-0.425923 -1.839984,-0.621149 -0.66174,-0.203919 -1.343626,-0.396459 -2.043122,-0.574262 z"/>
 <path style="fill:#ffffff;opacity:0.1" d="M 12.400391 9.9960938 C 12.115283 10.100109 12.085154 10.548269 12.201172 11.191406 C 12.244614 11.095924 12.310428 11.028915 12.400391 10.996094 C 13.746024 10.505153 21.419337 18.554279 22.966797 18.203125 C 26.182895 17.473318 29.811274 17.007812 33.759766 17.007812 C 41.618138 17.007813 48.669297 18.681371 53.472656 21.238281 C 57.737102 23.246741 59.702069 25.381052 59.960938 27.556641 C 60.251844 25.03622 58.389209 22.553869 53.472656 20.238281 C 48.669297 17.681371 41.618138 16.005859 33.759766 16.005859 C 29.811274 16.005859 26.182895 16.473318 22.966797 17.203125 C 21.419337 17.554279 13.746024 9.5051532 12.400391 9.9960938 z M 14.791016 20.138672 C 14.762507 20.190024 14.728366 20.233606 14.681641 20.259766 C 12.620241 21.082048 10 21.998047 10 21.998047 L 10 22.998047 C 10 22.998047 12.620241 22.082048 14.681641 21.259766 C 14.899762 21.137646 14.908686 20.726276 14.791016 20.138672 z M 25.107422 38.888672 C 21.047306 41.906996 4 52 4 52 C 4.438522 52.000111 5.138187 51.924016 6.0449219 51.78125 C 10.881793 48.902002 27.186343 39.139155 26.001953 38.998047 C 25.711291 38.963537 25.405259 38.924377 25.107422 38.888672 z"/>
 <path style="fill:#ffffff;opacity:0.1" d="M 4 19.998047 L 4 20.998047 L 10 20.998047 L 10 19.998047 L 4 19.998047 z M 10 21.998047 L 10 22.998047 C 21.061215 24.861999 27.136223 27.159674 27.914062 29.486328 C 27.975333 29.294608 28.012662 29.103992 28.001953 28.912109 C 27.864057 26.441349 21.735859 23.975685 10 21.998047 z"/>
</svg>
